X:672
T:Mr. Lumsden
R:Strathspey
B:The Athole Collection
M:C
L:1/8
K:F
A/B/|c<Fd<f c<F B>d|c<F B/A/G/F/ E<G ~GA/B/|c<F d>F c<F B>d|
E/F/G G/A/B AFF:|
g|f/g/a/g/ ~f<c d<f~f<g|f/g/a/g/ ~f<d e>g~g>a|f/g/a/g/ ~f<c d>f c<A|
B/c/d G/A/B A<F ~F>g|f/g/a/g/ ~f<c d<f ~f>g|f/g/a/g/ ~f<d e<g ~g>b|
a>b g<a f<gd<f|B/c/d G/A/B A<FF||

